src/preferences/32/download.svg

<svg width="32" height="32" version="1.1" viewBox="0 0 32 32" xmlns="http://www.w3.org/2000/svg" xmlns:xlink="http://www.w3.org/1999/xlink">
 <defs>
  <style id="current-color-scheme" type="text/css">.ColorScheme-Text {
        color:#363636;
      }</style>
  <linearGradient id="a" x1="400.57" x2="400.57" y1="545.8" y2="517.8" gradientTransform="translate(-384.57,-515.8)" gradientUnits="userSpaceOnUse">
   <stop stop-color="#4cbe04" offset="0"/>
   <stop stop-color="#72cd09" offset="1"/>
  </linearGradient>
 </defs>
 <image x=".5" y="1" width="31" height="31" image-rendering="optimizeQuality" preserveAspectRatio="none" xlink:href="data:image/png;base64,iVBORw0KGgoAAAANSUhEUgAAAB8AAAAfCAYAAAAfrhY5AAAACXBIWXMAAA7DAAAOwwHHb6hkAAAA GXRFWHRTb2Z0d2FyZQB3d3cuaW5rc2NhcGUub3Jnm+48GgAAAPdJREFUSMftl7GuwjAMRY9NXlk6 8P9fycBCaWsGbJTmwQIkMORKVqWo6rm+zWCLmVFKRATI61VZlD0ASXkmIjsgAXtgAHZvwBdgAs7A bGbLQ7h3m4DR6++DnV+Ak9ccKaTsxQQcHJzehJaKNBNwdDNoFnXZ8Scl/t0RGJ13g2dxJ+pqw1ER Ub9cNTp+lsBeRFT9YGgAzg0MgARcG8M14DQE5wbuF+4r6vAO7/AO7/CqcGvMtYAbsDY0cOcFfGoM nwBTM1t9rr40MBBj9NnM1vjnc8zUleEbjnLbZZZsqK+RwGZxiM0lFa6O/qy6sfzWrlZzS/VL/U9X YfxzIl867ocAAAAASUVORK5CYII="/>
 <rect x="2" y="2" width="28" height="28" rx="7" ry="7" fill="url(#a)"/>
 <path d="m9 2c-3.878 0-7 3.122-7 7v14c0 3.878 3.122 7 7 7h14c3.878 0 7-3.122 7-7v-14c0-3.878-3.122-7-7-7zm0 0.5h14c3.601 0 6.5 2.899 6.5 6.5v14c0 3.601-2.899 6.5-6.5 6.5h-14a6.486 6.486 0 0 1-6.5-6.5v-14c0-3.601 2.899-6.5 6.5-6.5" fill="#ffffff" opacity=".15"/>
 <path d="m16 8.5a7.5 7.5 0 0 0-7.5 7.5 7.5 7.5 0 0 0 7.5 7.5 7.5 7.5 0 0 0 7.5-7.5 7.5 7.5 0 0 0-7.5-7.5zm0 1a6.5 6.5 0 0 1 6.5 6.5 6.5 6.5 0 0 1-6.5 6.5 6.5 6.5 0 0 1-6.5-6.5 6.5 6.5 0 0 1 6.5-6.5zm0 3c-0.277 0-0.5 0.223-0.5 0.5v4.793l-1.2676-1.2676c-0.19587-0.19587-0.51116-0.19587-0.70703 0s-0.19587 0.51116 0 0.70703l2.1211 2.1211c0.04701 0.04701 0.10324 0.08408 0.16602 0.10938 0.12034 0.04897 0.25466 0.04897 0.375 0 0.06278-0.0253 0.119-0.06236 0.16602-0.10938l2.1211-2.1211c0.19587-0.19587 0.19587-0.51116 0-0.70703s-0.51116-0.19587-0.70703 0l-1.2676 1.2676v-4.793c0-0.277-0.223-0.5-0.5-0.5z" fill="#ffffff"/>
</svg>

<svg xmlns="http://www.w3.org/2000/svg" xmlns:xlink="http://www.w3.org/1999/xlink" width="32" height="32" viewBox="0 0 32 32"><defs><linearGradient id="a" x1="400.57" x2="400.57" y1="545.8" y2="517.8" gradientTransform="translate(-384.57 -515.8)" gradientUnits="userSpaceOnUse"><stop offset="0" stop-color="#4cbe04"/><stop offset="1" stop-color="#72cd09"/></linearGradient></defs><image xlink:href="data:image/png;base64,iVBORw0KGgoAAAANSUhEUgAAAB8AAAAfCAYAAAAfrhY5AAAACXBIWXMAAA7DAAAOwwHHb6hkAAAA GXRFWHRTb2Z0d2FyZQB3d3cuaW5rc2NhcGUub3Jnm+48GgAAAPdJREFUSMftl7GuwjAMRY9NXlk6 8P9fycBCaWsGbJTmwQIkMORKVqWo6rm+zWCLmVFKRATI61VZlD0ASXkmIjsgAXtgAHZvwBdgAs7A bGbLQ7h3m4DR6++DnV+Ak9ccKaTsxQQcHJzehJaKNBNwdDNoFnXZ8Scl/t0RGJ13g2dxJ+pqw1ER Ub9cNTp+lsBeRFT9YGgAzg0MgARcG8M14DQE5wbuF+4r6vAO7/AO7/CqcGvMtYAbsDY0cOcFfGoM nwBTM1t9rr40MBBj9NnM1vjnc8zUleEbjnLbZZZsqK+RwGZxiM0lFa6O/qy6sfzWrlZzS/VL/U9X YfxzIl867ocAAAAASUVORK5CYII=" width="31" height="31" x=".5" y="1" image-rendering="optimizeQuality" preserveAspectRatio="none"/><rect width="28" height="28" x="2" y="2" fill="url(#a)" rx="7" ry="7"/><path fill="#fff" d="M9 2C5.122 2 2 5.122 2 9v14c0 3.878 3.122 7 7 7h14c3.878 0 7-3.122 7-7V9c0-3.878-3.122-7-7-7zm0 .5h14c3.601 0 6.5 2.899 6.5 6.5v14c0 3.601-2.899 6.5-6.5 6.5H9A6.486 6.486 0 0 1 2.5 23V9c0-3.601 2.899-6.5 6.5-6.5" opacity=".15"/><path fill="#fff" d="M16 8.5A7.5 7.5 0 0 0 8.5 16a7.5 7.5 0 0 0 7.5 7.5 7.5 7.5 0 0 0 7.5-7.5A7.5 7.5 0 0 0 16 8.5m0 1a6.5 6.5 0 0 1 6.5 6.5 6.5 6.5 0 0 1-6.5 6.5A6.5 6.5 0 0 1 9.5 16 6.5 6.5 0 0 1 16 9.5m0 3c-.277 0-.5.223-.5.5v4.793l-1.268-1.268a.499.499 0 1 0-.707.707l2.121 2.122a.5.5 0 0 0 .541.109.5.5 0 0 0 .167-.11l2.12-2.12a.499.499 0 1 0-.706-.708L16.5 17.793V13c0-.277-.223-.5-.5-.5"/></svg>
